X:154
T:Calliope
C:Colin Hume, 2016
L:1/4
M:2/2
R:Reel
S:Colin Hume's website,  colinhume.com  - chords can also be printed below the stave.
Q:1/2=92
%%MIDI program 60     French Horn
%%MIDI chordprog 48   String Ensemble 1
%%MIDI bassprog 43    Contrabass
%%MIDI gchord b
K:C Mixolydian
P:A
|: (C | "C"GC Gc | "Gm"BA GF | "C"G2) (zC | "Bb"DE FG | "Dm"AG FD | "C"E2) (zG |
"F"cB Ac | "Gm"BA GD | "C"E2) (zG | "Am"cB Ac | "Bb"dc Bd | "C"c2)z :|
P:B
|: (c [I:MIDI=gchordon] [I:MIDI=gchord bb] | "F/A"fe "Bb"ed | "C"dc "Dm"A3/B/ | "C/E"c2) "C"(zc | "F"ag "Gm"gf | "Am"fe "Bb"e3/f/ | "C"g2) "/"(zC |
% %MIDI gchord b3z
"C"GC Gc | "Gm"BA G3/F/ | "C"G2) (zF | "Am"EA GE | "Bb"DG F3/D/ | "C"C2) [I:MIDI=gchordoff] z :|

